resources/images/ams_rfid_3.svg

<svg width="30" height="30" xmlns="http://www.w3.org/2000/svg" fill="none">
 <defs>
  <clipPath id="clip0_7112_29471">
   <rect id="svg_1" fill="white" height="30" width="30"/>
  </clipPath>
 </defs>
 <g>
  <title>Layer 1</title>
  <g id="svg_2" clip-path="url(#clip0_7112_29471)">
   <path id="svg_3" stroke="black" d="m31.1539,-1.15234l-32.30771,0l0,32.30764l32.30771,0l0,-32.30764z"/>
   <path id="svg_4" fill="#6B6B6B" d="m7.26862,22.8248l-1.70224,1.7022c-0.15485,0.1549 -0.42002,0.0603 -0.4418,-0.1577l-0.56172,-5.6079c-0.01641,-0.1632 0.12091,-0.3005 0.28418,-0.2842l5.60796,0.5617c0.2178,0.0219 0.3124,0.2871 0.1576,0.4419l-1.753,1.753c1.2165,1.1983 2.7575,2.0148 4.4333,2.3481c1.6973,0.3377 3.4567,0.1644 5.0555,-0.4979c1.5989,-0.6623 2.9655,-1.7838 3.9269,-3.2227c0.9615,-1.439 1.4747,-3.1307 1.4747,-4.8613c0,-1.7306 -0.5132,-3.4223 -1.4747,-4.8613c-0.9614,-1.43891 -2.328,-2.56043 -3.9269,-3.2227c-1.5988,-0.66227 -3.3582,-0.83555 -5.0555,-0.49793c-1.6974,0.33762 -3.2565,1.17099 -4.4802,2.3947l-0.53029,-0.53028l-0.53037,-0.53038l-0.53029,-0.53028c0.35619,-0.35619 0.73499,-0.68608 1.13331,-0.98801c1.32202,-1.0021 2.85914,-1.69629 4.49884,-2.02245c2.1338,-0.42444 4.3456,-0.2066 6.3555,0.62596c2.01,0.83256 3.728,2.24246 4.9367,4.0514c1.2087,1.80897 1.8538,3.93567 1.8538,6.11127c0,2.1756 -0.6451,4.3023 -1.8538,6.1113c-1.2087,1.8089 -2.9267,3.2188 -4.9367,4.0514c-2.0099,0.8325 -4.2217,1.0504 -6.3555,0.6259c-1.6397,-0.3261 -3.17682,-1.0203 -4.49884,-2.0224c-0.3809,-0.2887 -0.74394,-0.603 -1.08644,-0.9414z" clip-rule="evenodd" fill-rule="evenodd"/>
  </g>
 </g>
</svg>

<svg width="30" height="30" viewBox="0 0 30 30" fill="none" xmlns="http://www.w3.org/2000/svg">
<g clip-path="url(#clip0_10670_19482)">
<mask id="mask0_10670_19482" style="mask-type:luminance" maskUnits="userSpaceOnUse" x="0" y="0" width="30" height="30">
<path d="M30 0H0V30H30V0Z" fill="white"/>
</mask>
<g mask="url(#mask0_10670_19482)">
<path d="M31.1534 -1.15234H-1.1543V31.1553H31.1534V-1.15234Z" stroke="black"/>
<path fill-rule="evenodd" clip-rule="evenodd" d="M7.26862 22.8248L5.56638 24.527C5.41153 24.6819 5.14636 24.5873 5.12458 24.3693L4.56286 18.7614C4.54645 18.5982 4.68377 18.4609 4.84704 18.4772L10.455 19.0389C10.6728 19.0608 10.7674 19.326 10.6126 19.4808L8.8596 21.2338C10.0761 22.4321 11.6171 23.2486 13.2929 23.5819C14.9902 23.9196 16.7496 23.7463 18.3484 23.084C19.9473 22.4217 21.3139 21.3002 22.2753 19.8613C23.2368 18.4223 23.75 16.7306 23.75 15C23.75 13.2694 23.2368 11.5777 22.2753 10.1387C21.3139 8.69979 19.9473 7.57827 18.3484 6.916C16.7496 6.25373 14.9902 6.08045 13.2929 6.41807C11.5955 6.75569 10.0364 7.58906 8.8127 8.81277L8.28241 8.28249L7.75204 7.75211L7.22175 7.22183C7.57794 6.86564 7.95674 6.53575 8.35506 6.23382C9.67708 5.23172 11.2142 4.53753 12.8539 4.21137C14.9877 3.78693 17.1995 4.00477 19.2094 4.83733C21.2194 5.66989 22.9374 7.07979 24.1461 8.88873C25.3548 10.6977 25.9999 12.8244 25.9999 15C25.9999 17.1756 25.3548 19.3023 24.1461 21.1113C22.9374 22.9202 21.2194 24.3301 19.2094 25.1627C17.1995 25.9952 14.9877 26.2131 12.8539 25.7886C11.2142 25.4625 9.67708 24.7683 8.35506 23.7662C7.97416 23.4775 7.61112 23.1632 7.26862 22.8248Z" fill="#6B6B6B"/>
</g>
</g>
<defs>
<clipPath id="clip0_10670_19482">
<rect width="30" height="30" fill="white"/>
</clipPath>
</defs>
</svg>
